!!!SOCIAL_FUNCTION:	harvest dance songs
!!!PDT:	1957
!!!OTL: No_39_The_Butterfly_You_Painted_Has_Flown_Away.krn
!!!LING_GROUP: Keresan
!!!LANG: Tone
!!!REG: Southwest
**kern
*staff1
=1-
*clefF4
*k[b-]
*M2/4
8d\L
8c\J
4c\
=2
8d\L
8c\J
8c\L
8B-\J
=3
16B-\LK
[8.G\J
4G\]
=4
8.G\L
16G\Jk
4G\
=5
4F\
4G\
=6
4F\
4F\
=7
8A\L
8G\J
4G\
=8
4A\
4G\
=9
16A\LK
[8.G\J
4G\]
=10
8.G\L
16G\Jk
4G\
=11
4F\
4F\
=12
*M3/4
16A\LK
8.G\J
16G\LK
8.F\J
4E\
=13
*M2/4
8F\L
8F\J
4F\
=14
*M3/4
16A\LK
8.G\J
16G\LK
8.F\J
4E\
=15
*M2/4
8F\L
8F\J
8F\
8r
=16
*M3/4
16A\LK
8.G\J
16G\LK
8.F\J
4E\
=17
*M2/4
8F\L
8F\J
4F\
=18
8A\L
8A\J
4G\
=19
4A\
4A\
=20
8.G\L
16F\Jk
4G\
=21
4F\
4F\
=22
4A\
16A\LK
8.G\J
=23
12A\L
12G\
12G\J
4G\
=24
4F\
8F\
8r
=25
*M3/4
4G\
16G\LK
8.F\J
4E\
=26
*M2/4
8F\L
8F\J
4F\
=27
*M3/4
16A\LK
8.G\J
16G\LK
8.F\J
4E\
=28
*M2/4
8F\L
8F\J
4F\
=29
8A\L
8A\J
4G\
=30
4A\
4A\
=31
8.G\L
16F\Jk
4G\
=32
4F\
8.F\L
16F\Jk
=33
*M3/4
4G\
8.G\L
16F\Jk
8.E\L
16E\Jk
=34
*M2/4
8F\L
8F\J
4F\
=35
*M3/4
4F\
4r
4F\
=36
*M2/4
8c\L
8c\J
4c\
=37
4c\
4c\
=38
16A\LK
[8.G\J
4G\]
=39
8G\L
8G\J
4G\
=40
4F\
4G\
=41
4F\
8F\
8r
=42
4G\
4G\
=43
4A\
4G\
=44
16A\LK
[8.G\J
4G\]
=45
8G\L
8G\J
4G\
=46
4F\
4F\
=47
*M3/4
16A\LK
8.G\J
16G\LK
8.F\J
4E\
=48
*M2/4
8F\L
8F\J
4F\
=49
*M3/4
16A\LK
8.G\J
16G\LK
8.F\J
4E\
=50
*M2/4
8F\L
8F\J
8F\
8r
=51
*M3/4
16A\LK
8.G\J
16G\LK
8.F\J
4E\
=52
*M2/4
8F\L
8F\J
4F\
=53
8A\L
8A\J
4G\
=54
4A\
4A\
=55
8.G\L
16F\Jk
4G\
=56
4F\
8F\
8r
=57
!!pagebreak:default
4A\
8A\L
8G\J
=58
12A\L
12G\
12G\J
4G\
=59
4F\
8F\
8r
=60
*M3/4
4G\
8.G\L
16F\Jk
4E\
=61
*M2/4
8F\L
8F\J
4F\
=62
8A\L
8A\J
4G\
=63
4A\
4A\
=64
8.G\L
16F\Jk
4G\
=65
4F\
8.F\L
16F\Jk
=66
*M3/4
4G\
8.G\L
16F\Jk
8.E\L
16E\Jk
=67
*M2/4
8F\L
8F\J
4F\
=68
2r
=69!|:
8G\L
8F\J
4F\
=70
4F\
4e\
=71
4f\
8f\L
8e\J
=72
4f\
4f\
=73
4f\
12f\L
12d\
12c\J
=74
*M3/4
4c\
4c\
4c\
=75
*M2/4
4a\
4g\
=76
4g\
4f\
=77
4g\
4f\
=78
4d\
4c\
=79
8d\L
8d\J
4c\
=80
16c\LK
8.c\J
4A\
=81
12A\L
12G\
12G\J
4G\
=82
4F\
8F\
8r
=83
4G\
16G\LK
8.G\J
=84
4F\
4F\
=85
4c\
4A\
=86
4G\
4A\
=87
8A\L
8G\J
4G\
=88
4G\
4A\
=89
12A\L
12G\
12G\J
8G\L
8F\J
=90
8G\L
8F\J
4F\
=91
4F\
8.F\L
16F\Jk
=92
4G\
4F\
=93
4r
8F\L
8F\J
=94:|!
*M3/4
8.G\L
16G\Jk
8F\
8r
8.F\L
16F\Jk
=95
*M2/4
8G\L
8F\J
8.F\L
16G\Jk
=96
4f\
4f\
=97
4f\
4g\
=98
8g\L
8f\J
4d\
=99
4c\
4c\
=100
8c\L
8G\J
8G\L
8G\J
=101
4B-\
4B-\
=102
4B-\
4c\
=103
12c\L
12B-\
12B-\J
4G\
=104
*M3/4
4G\
8G\L
8F\J
8F\
8r
=105
*M2/4
4F\
4F\
=106
4F\
8.F\L
16F\Jk
=107
8G\L
8G\J
4F\
=108
8G\L
8F\J
8G\L
8F\J
==
*-
